!!!COM: Corelli, Arcangelo
!!!OTL: 
!!!ONM: Opus 5, No. 3
!!!OMV: 4
!!!CDT: 1653/2/17/-1713/1/8/
!!!OCY: Italia
**kern	**kern
*clefC	*clefG
*k[]	*k[]
*C:	*C:
*M4/4	*M4/4
=1	=1
4C	16cc
.	16ee
.	16gg
.	16ee
8r	16cc
.	16ee
8c	16gg
.	16ee
4B	16dd
.	16gg
.	16dd
.	16b
8r	16dd
.	16gg
8B	16dd
.	16b
=2	=2
4A	16cc
.	16ee
.	16cc
.	16a
4D	16f#
.	16dd
.	16a
.	16cc
4G	16b
.	16dd
.	16gg
.	16dd
4r	16b
.	16dd
.	16gg
.	16b
=3	=3
4E	16cc
.	16ee
.	16gg
.	16ee
8r	16cc
.	16ee
8E	16gg
.	16ee
4F	16aa
.	16a
.	16cc
.	16a
8r	16f
.	16a
8F	16dd
.	16a
=4	=4
8G	16b
.	16g
8E	16cc
.	16e
8F	16d
.	16cc
8G	16b
.	16d
4C	16c
.	16e
.	16g
.	16e
8r	16c
.	16e
8C	16g
.	16e
=5	=5
4BB	16d
.	16g
.	16b
.	16dd
8r	16b
.	16g
8BB	16b
.	16dd
4AA	16cc
.	16ee
.	16aa
.	16gg
4D	16ff#
.	16dd
.	16ff#
.	16aa
=6	=6
4GG	16bb
.	16b
.	16dd
.	16b
8r	16g
.	16b
8G	16dd
.	16b
4F#	16a
.	16cc#
.	16dd
.	16a
8r	16f#
.	16a
8B	16dd
.	16f#
=7	=7
4E	16g
.	16b
.	16cc
.	16g
8r	16e
.	16g
8A	16cc
.	16e
4D	16f#
.	16a
.	16dd
.	16f#
8r	16g
.	16dd
8BB	16gg
.	16b
=8	=8
8AA	16cc
.	16ff#
8GG	16gg
.	16b
8D	16a
.	16gg
8DD	16ff#
.	16a
4GG	16g
.	16b
.	16dd
.	16b
4r	16g
.	16b
.	16dd
.	16b
=9	=9
4E	16cc
.	16ee
.	16gg
.	16ee
8r	16cc
.	16ee
8E	16gg
.	16ee
4F	16aa
.	16ff
.	16aa
.	16ccc
8r	16aa
.	16ff
8F	16aa
.	16ccc
=10	=10
4E	16gg
.	16ccc
.	16gg
.	16ee
8r	16gg
.	16ccc
8E	16gg
.	16ee
4D	16ff
.	16aa
.	16ff
.	16dd
4G	16b
.	16gg
.	16dd
.	16ff
=11	=11
4C	16ee
.	16gg
.	16ee
.	16cc
4F	16a
.	16ff
.	16cc
.	16ee
4BB	16dd
.	16ff
.	16dd
.	16b
4E	16g#
.	16b
.	16ee
.	16b
=12	=12
4AA	16cc
.	16ee
.	16cc
.	16ee
4GG	16b
.	16ee
.	16b
.	16ee
2FF	16a
.	16ee
.	16aa
.	16gg#
.	16aa
.	16cc
.	16b
.	16a
=13	=13
4EE	16g#
.	16b
.	16ee
.	16b
8r	16e
.	16b
8C	16ee
.	16e
4D	16f
.	16a
.	16dd
.	16a
8r	16f
.	16a
8D	16dd
.	16a
=14	=14
4E	16g#
.	16b
.	16ee
.	16b
8r	16cc
.	16ee
8C	16aa
.	16cc
8BB	16dd
.	16gg#
8AA	16aa
.	16cc
8E	16b
.	16aa
8EE	16gg#
.	16b
=15	=15
4AA	16a
.	16cc
.	16ee
.	16cc
4r	16a
.	16cc
.	16ee
.	16a
4E	16g#
.	16b
.	16ee
.	16b
4r	16g#
.	16b
.	16ee
.	16b
=16	=16
4A	16a
.	16cc
.	16ee
.	16cc
4r	16a
.	16cc
.	16ee
.	16a
4G	16b
.	16dd
.	16gg
.	16dd
4r	16b
.	16dd
.	16gg
.	16b
=17	=17
4C	16cc
.	16ee
.	16gg
.	16ee
4r	16cc
.	16ee
.	16gg
.	16ee
4AA	16cc#
.	16ee
.	16aa
.	16ee
4r	16cc#
.	16ee
.	16aa
.	16ee
=18	=18
4D	16dd
.	16ff
.	16aa
.	16ff
4r	16dd
.	16ff
.	16aa
.	16ff
4BB	16dd#
.	16ff#
.	16bb
.	16ff#
4r	16dd#
.	16ff#
.	16bb
.	16ff#
=19	=19
4E	16gg
.	16b
.	16ee
.	16b
4r	16g
.	16b
.	16ee
.	16b
4AA	16cc#
.	16dd#
.	16ee
.	16g
4BB	16f#
.	16ee
.	16dd#
.	16f#
=20	=20
4E	16e
.	16gg
.	16bb
.	16gg
4r	16ee
.	16gg
.	16bb
.	16gg
4A	16cc#
.	16gg
.	16aa
.	16gg
4r	16a
.	16gg
.	16aa
.	16gg
=21	=21
4D	16dd
.	16ff
.	16aa
.	16ff
4r	16dd
.	16ff
.	16aa
.	16ff
4G	16b
.	16ff
.	16gg
.	16ff
4r	16g
.	16ff
.	16gg
.	16ff
=22	=22
4C	16cc
.	16ee
.	16gg
.	16ee
4r	16cc
.	16ee
.	16gg
.	16ee
4F	16a
.	16dd
.	16cc
.	16dd
4r	16a
.	16dd
.	16cc
.	16dd
=23	=23
4G	16b
.	16g
.	16a
.	16b
4E	16cc
.	16g
.	16cc
.	16g
4F	16a
.	16cc
.	16dd
.	16a
4G	16b
.	16dd
.	16ee
.	16b
=24	=24
4A	16cc
.	16ee
.	16ff
.	16cc
4B	16dd
.	16ff
.	16gg
.	16dd
4c	16ee
.	16gg
.	16aa
.	16cc
8r	16b
.	16dd
8G	16gg
.	16b
=25	=25
4A	16a
.	16cc
.	16ff
.	16a
8r	16g
.	16b
8E	16ee
.	16g
4F	16f
.	16a
.	16dd
.	16f
8r	16e
.	16g
8E	16cc
.	16e
=26	=26
8D	16f
.	16b
8C	16cc
.	16e
8G	16d
.	16cc
8GG	16b
.	16d
4C	16c
.	16e
.	16a
.	16c
8r	16B
.	16d
8G	16g
.	16B
=27	=27
4A	16A
.	16g
.	16cc
.	16e
8r	16f
.	16a
8B	16dd
.	16f
4c	16e
.	16dd
.	16gg
.	16b
8r	16cc
.	16ee
8F	16aa
.	16cc
=28	=28
8G	16g
.	16b
8E	16cc
.	16e
8D	16f
.	16b
8C	16cc
.	16e
2GG	4d 4cc 4G
.	4b 4f 4G
=29	=29
1C	1cc 1ee 1e 1c
==	==
*-	*-
!!!RWG: This file only contains pitch and duration data.
!!!RWG: Transposing instruments are not transposed.
!!!RWG: Durations of rests and tied notes may be interpreted.
!!!RWG: Key is interpreted using the Humdrum key tool.
!!!SCA: 
!!!YOR: 
!!!AGN: violin
!!!AFT: stage1
!!!ENC: F. Bennion
!!!END: 1997/04/15
!!!AST: baroque
!!!YEC: Copyright 1994, Center for Computer Assisted Research in the Humanities
!!!YEM: Rights to all derivative electronic formats reserved.
!!!YEM: Refer to licensing agreement for further details.
!!!YEN: United States of America
!!!EED: W.B. Hewlett
!!!KEY: 2222292458
!!!EMD: Converted from MuseData to Humdrum Aug 9, 1999, by Bret Aarden using muse2kern.
!!!VTS: 273095659
